Papirus/64x64/devices/network-vpn.svg

<svg xmlns="http://www.w3.org/2000/svg" width="64" height="64" version="1">
 <path style="opacity:0.2" d="m 32,10 c -5.539899,0 -10,4.460001 -10,10 l 0,1 c 0,-5.539999 4.460101,-10 10,-10 5.5399,0 10,4.460001 10,10 l 0,-1 C 42,14.460001 37.5399,10 32,10 Z m -22,47.199219 0,1 C 10,59.749219 11.249609,61 12.800781,61 l 38.398438,0 C 52.749191,61 54,59.749219 54,58.199219 l 0,-1 C 54,58.749219 52.749191,60 51.199219,60 L 12.800781,60 C 11.249609,60 10,58.749219 10,57.199219 Z"/>
 <path style="fill:#d2d2d2" d="m 31.99989,4.0004024 c -8.863999,0 -15.999999,7.1358706 -15.999999,15.9997086 l 0,5.999891 6,0 0,-5.999891 c 0,-5.539899 4.459999,-9.999818 9.999999,-9.999818 5.540002,0 10.000001,4.459919 10.000001,9.999818 l 0,5.999891 6,0 0,-5.999891 c 0,-8.863838 -7.136,-15.9997086 -16.000001,-15.9997086 z"/>
 <rect style="fill:#fecd38" width="33.999" height="44" x="-60" y="-54" rx="2.8" ry="2.8" transform="matrix(0,-1,-1,0,0,0)"/>
 <path style="opacity:0.1;fill:#ffffff" d="M 32 4 C 23.136001 4 16 11.136162 16 20 L 16 21 C 16 12.136162 23.136001 5 32 5 C 40.864001 5 48 12.136162 48 21 L 48 20 C 48 11.136162 40.864001 4 32 4 z"/>
 <path style="opacity:0.1;fill:#ffffff" d="M 12.800781 26 C 11.249609 26 10 27.250809 10 28.800781 L 10 29.800781 C 10 28.250809 11.249609 27 12.800781 27 L 51.199219 27 C 52.749191 27 54 28.250809 54 29.800781 L 54 28.800781 C 54 27.250809 52.749191 26 51.199219 26 L 12.800781 26 z"/>
 <rect style="fill:#fed96a" width="44" height="20" x="10" y="32" rx="0" ry="0"/>
</svg>

<svg xmlns="http://www.w3.org/2000/svg" width="64" height="64" version="1">
 <path style="opacity:0.2" d="m 32,10 c -5.539899,0 -10,4.460001 -10,10 l 0,1 c 0,-5.539999 4.460101,-10 10,-10 5.5399,0 10,4.460001 10,10 l 0,-1 C 42,14.460001 37.5399,10 32,10 Z m -22,47.199219 0,1 C 10,59.749219 11.249609,61 12.800781,61 l 38.398438,0 C 52.749191,61 54,59.749219 54,58.199219 l 0,-1 C 54,58.749219 52.749191,60 51.199219,60 L 12.800781,60 C 11.249609,60 10,58.749219 10,57.199219 Z"/>
 <path style="fill:#b7b7b7" d="M 32,4.0004 C 23.136,4.0004 16,11.136 16,20 V 26 H 22 V 20 C 22,14.46 26.46,10 32,10 37.54,10 42,14.46 42,20 V 26 H 48 V 20 C 48,11.136 40.864,4.0004 32,4.0004 Z"/>
 <rect style="fill:#fecd38" width="33.999" height="44" x="-60" y="-54" rx="2.8" ry="2.8" transform="matrix(0,-1,-1,0,0,0)"/>
 <path style="opacity:0.1;fill:#ffffff" d="M 32 4 C 23.136001 4 16 11.136162 16 20 L 16 21 C 16 12.136162 23.136001 5 32 5 C 40.864001 5 48 12.136162 48 21 L 48 20 C 48 11.136162 40.864001 4 32 4 z"/>
 <path style="opacity:0.1;fill:#ffffff" d="M 12.800781 26 C 11.249609 26 10 27.250809 10 28.800781 L 10 29.800781 C 10 28.250809 11.249609 27 12.800781 27 L 51.199219 27 C 52.749191 27 54 28.250809 54 29.800781 L 54 28.800781 C 54 27.250809 52.749191 26 51.199219 26 L 12.800781 26 z"/>
 <rect style="fill:#fed96a" width="44" height="20" x="10" y="32" rx="0" ry="0"/>
</svg>
